X:2
T:Reel de Mattawa
C:Richard Forest
M:4/4
L:1/8
R:reel
K:Edor
|:B2 | ABeB gBeB | ABeB gBeB | ddfd gdfd | Adfd gdfd |
ABeB gBeB | ABeB gBeB | f2fg fedc | Bc d2 e2 :|
|:ef | gefd ecdB | ABAF D2FD | EFGA B2ef | gfed A2ef |
gefd ecdB | ABAF D2FD | EFGA B2AG | FAGF E2 :|
